X:1
T:O Lord Our Master
T:O Lord Our Master
T:Telemann
C:Telemann
L:1/8
Q:1/4=66
M:3/8
K:D
V:1 treble nm="Piano" snm="Pno."
V:1
"^1." ADE |"^2." (F/>E/F/>A/G/>B/ | A)D z | cdB | A((BE)) | ((((cd))))B | (AB)E | e(d/c/d/B/ | %8
w: O Lord, our|Ma- * * * * *|* ster,|how glo- rious|is Thy\- *|name- * in|all- * the|na- * * * *|
[Q:1/8=132] c/B/)A z | AAG | GFB | (Ad)F | FE z | z D(A- | A/G/F/E/F/D/ | BAd- | dc)B | A(AG) | %18
w: * * tions.|O Lord, our|Ma- ster, O|Lord- * our|Ma- ster,|how glo-|||* * rious|is Thy- *|
 F2 E | (DG/F/)(G/E/) | (F/D/) E2 | D z c | (dc/)B/A | ^GAc | (dc/B/)(A/G/) | (F/D/ E2) | %26
w: name in|all- * * the- *|na- * *|tions, in|all- * * the|na- tions, in|all- * * the- *|na- * *|
 D/F/(G/A/)(B/c/) | dD z |] %28
w: tions, in all- * the- *|na- tions.|

